X:326
T:Maledictive
M:C|
C:© Paul Gitlitz 2011
K:Em
"Em"EGBd B3G|"D"FGAB "Em"GFE2|"B"^DEFG FED2|"Em"EB,EF G3B|!
"Am"ABcd BcA2|"Em"GABc ABG2|"D"FGFA FBAF|"Em"EFGA B3e|!
"Am"A^GAB cBA2|"Em"=GABc ABG2|"B"F=F^FG  "Am"AcFG|"Em"EB,EG E2FG|!
"Am"ABcd BcA2|"Em"GABc ABG2|"D"FGFA FBAF|"Em"EFGA B2ed|!
"Am"cBcd edc2|"Em"B_B=Bc BGFE|"B"^DB,DF  "Am"AcFG|"Em"E8:|]
